X: 9
T: Jackson's Morning Brush
R: jig
M: 6/8
L: 1/8
K: Dmaj
|:A|DFE EFD|DFA AFA|BAB def|gfg e2A|
D2F E2F|D.F/.G/.A AFA|BAB d2e|fdd d2:|
|:g|fed faf|ede fdB|A.F/.G/.A def|gfg e2g|
fed faf|ede fdB|A.F/.G/.A d2e|fdd d2:|
g|fdf ece|d.f/.g/.d AFA|D.F/.G/.A def|gfg e2g|
afd gec|dB/c/d AFA|D3 d2e|fdd d2g|
fed faf|gbg faf|fed faf|gfg e2g|
fed f3|g3 f3|fed eag|fdc d2:|


Tune 2699	Setting 15934

